src/styles/Icons/assets/generic/pin.svg

<?xml version="1.0" encoding="UTF-8"?>
<svg width="24px" height="24px" viewBox="0 0 24 24" version="1.1" xmlns="http://www.w3.org/2000/svg" xmlns:xlink="http://www.w3.org/1999/xlink">
    <!-- Generator: Sketch 51.2 (57519) - http://www.bohemiancoding.com/sketch -->
    <title>Icon / UI / Raw / pin</title>
    <desc>Created with Sketch.</desc>
    <defs>
        <path d="M13.4282803,21.4164914 C14.4156411,20.2715326 15.4029678,19.0539984 16.3235522,17.8172088 C17.1183675,16.749388 17.8265386,15.7156025 18.4253767,14.7345444 C19.7431201,12.5757263 20.4685803,10.7732059 20.4685803,9.4878797 C20.4685803,5.07485377 16.8937683,1.5 12.4807006,1.5 C8.0738603,1.5 4.5,5.07594974 4.5,9.4878797 C4.5,10.7732954 5.22486071,12.5758509 6.54151141,14.734705 C7.139844,15.7157646 7.84741642,16.7495505 8.64155944,17.8173713 C9.56136447,19.0541599 10.5478549,20.2716927 11.5343792,21.4166498 C11.8769846,21.8142767 12.1951829,22.1746426 12.4808576,22.4912942 C12.7668111,22.1746042 13.0853278,21.8141844 13.4282803,21.4164914 Z M21.4685803,9.4878797 C21.4685803,11.0052646 20.6851943,12.9517107 19.2789284,15.2555527 C18.6628348,16.2648797 17.9377228,17.3233955 17.1257286,18.4142959 C16.1895894,19.6719831 15.1875693,20.9076367 14.1855832,22.0695552 C13.8348593,22.47626 13.5090622,22.8448435 13.2164563,23.1687822 C13.0403109,23.3637895 12.913945,23.5010315 12.8456314,23.5739687 C12.648009,23.7849665 12.3131587,23.7848958 12.1156255,23.5738146 C12.047369,23.5008767 11.9211093,23.363634 11.7451123,23.168626 C11.4527532,22.8446865 11.1272309,22.4761023 10.7768031,22.0693967 C9.77566311,20.9074766 8.77448935,19.6718216 7.83914113,18.4141333 C7.02783376,17.3232329 6.30333537,16.2647176 5.6877638,15.2553921 C4.28270924,12.9515861 3.5,11.0051751 3.5,9.4878797 C3.5,4.52379578 7.52144467,0.5 12.4807006,0.5 C17.4460556,0.5 21.4685803,4.52257163 21.4685803,9.4878797 Z M16.0020641,9.48555366 C16.0020641,11.4275494 14.4266551,13.0020785 12.4830984,13.0020785 C10.5415426,13.0020785 8.96657358,11.4271095 8.96657358,9.48555366 C8.96657358,7.54199698 10.5411027,5.96658794 12.4830984,5.96658794 C14.4270951,5.96658794 16.0020641,7.54155692 16.0020641,9.48555366 Z M15.0020641,9.48555366 C15.0020641,8.09384167 13.8748104,6.96658794 12.4830984,6.96658794 C11.0935125,6.96658794 9.96657358,8.0941567 9.96657358,9.48555366 C9.96657358,10.8748247 11.0938273,12.0020785 12.4830984,12.0020785 C13.8744954,12.0020785 15.0020641,10.8751395 15.0020641,9.48555366 Z" id="path-1"></path>
    </defs>
    <g id="Icon-/-UI-/-Raw-/-pin" stroke="none" stroke-width="1" fill="none" fill-rule="evenodd">
        <mask id="mask-2" fill="white">
            <use xlink:href="#path-1"></use>
        </mask>
        <use id="Combined-Shape" fill="#000000" fill-rule="nonzero" xlink:href="#path-1"></use>
    </g>
</svg>

<svg width="24" height="24" xmlns="http://www.w3.org/2000/svg" xmlns:xlink="http://www.w3.org/1999/xlink">
  <defs>
    <path d="M13.428 21.416a64.92 64.92 0 0 0 2.896-3.599 41.013 41.013 0 0 0 2.101-3.082c1.318-2.16 2.044-3.962 2.044-5.247A7.986 7.986 0 0 0 12.48 1.5C8.074 1.5 4.5 5.076 4.5 9.488c0 1.285.725 3.088 2.042 5.247a41.015 41.015 0 0 0 2.1 3.082 64.91 64.91 0 0 0 3.839 4.674c.286-.316.604-.677.947-1.075zm8.04-11.928c0 1.517-.783 3.464-2.19 5.768a41.992 41.992 0 0 1-2.152 3.158 65.904 65.904 0 0 1-4.28 5.16.5.5 0 0 1-.73 0 64.069 64.069 0 0 1-1.339-1.504 65.894 65.894 0 0 1-2.938-3.656 41.994 41.994 0 0 1-2.151-3.159C4.283 12.952 3.5 11.005 3.5 9.488 3.5 4.524 7.521.5 12.48.5a8.986 8.986 0 0 1 8.989 8.988zm-5.466-.002a3.518 3.518 0 1 1-7.035-.003 3.518 3.518 0 0 1 7.035.003zm-1 0a2.518 2.518 0 1 0-5.037-.002 2.518 2.518 0 0 0 5.037.002z" id="a"/>
  </defs>
  <use xlink:href="#a"/>
</svg>
